!!!COA:	Josquin des Prez
!!!CDT:	~1450-1521/08/27
!!!OTL@@FRE:	Baisiez moy
!!!AGN:	Chanson
!!!SCT:	NJE 30.3
!!!SCA:	New Josquin Edition 30.3
!!!voices:	6
**kern	**kern	**kern	**kern	**kern	**kern
*staff6	*staff5	*staff4	*staff3	*staff2	*staff1
*Ivox	*Ivox	*Ivox	*Ivox	*Ivox	*Ivox
*I"Bassus	*I"Quintus	*I"Sextus	*I"Tenor	*I"Contratenor	*I"Superius
*I'B	*I'Q	*I'Sx	*I'T	*I'Ct	*I'S
*clefF4	*clefF4	*clefGv2	*clefGv2	*clefGv2	*clefG2
*k[]	*k[]	*k[]	*k[]	*k[]	*k[]
*M2/1	*M2/1	*M2/1	*M2/1	*M2/1	*M2/1
*met(C|)	*met(C|)	*met(C|)	*met(C|)	*met(C|)	*met(C|)
=1-	=1-	=1-	=1-	=1-	=1-
!	!	!	!	!	!LO:TX:Z=6:t=6-ex-3 canon, all at the upper fourth
0D	1D	0r	0r	1r	0r
.	1GG	.	.	[1d	.
=2	=2	=2	=2	=2	=2
0E	2.C/	1G	0G	2d\]	1r
.	.	.	.	4c\	.
.	4D\	.	.	4B\	.
.	1E	1C	.	1c	[1g
=3	=3	=3	=3	=3	=3
0D	2r	2.F/	0A	1.d	2g/]
.	2F\	.	.	.	4f/
.	.	4G/	.	.	4e/
.	2F\	1A	.	.	1f
.	2D\	.	.	4c\	.
.	.	.	.	4B\	.
=4	=4	=4	=4	=4	=4
1r	2G\	2r	0G	2.B\	1.g
.	2G\	2B\	.	.	.
.	.	.	.	8A/L	.
.	.	.	.	8G/J	.
1G	1E	2B\	.	2G/	.
.	.	2G/	.	[2g\	4f/
.	.	.	.	.	4e/
=5	=5	=5	=5	=5	=5
0A	2r	2c\	1r	2g\]	2.e/
.	2A\	2c\	.	4f\	.
.	.	.	.	4e\	8d/L
.	.	.	.	.	8c/J
.	2A\	1A	1c	1f	2c/
.	2F\	.	.	.	[2cc\
=6	=6	=6	=6	=6	=6
0G	2B-i\	2r	0d	[0g	2cc\]
.	2B-i\	2d\	.	.	4b\
.	.	.	.	.	4a/
.	1G	2d\	.	.	1b
.	.	2B\	.	.	.
=7	=7	=7	=7	=7	=7
0r	0r	2e\	0c	0g]	[0cc
.	.	2e\	.	.	.
.	.	1c	.	.	.
=8	=8	=8	=8	=8	=8
2c\	2C/	0r	0r	0r	0cc]
2c\	2C/	.	.	.	.
2c\	2C/	.	.	.	.
2c\	2C/	.	.	.	.
=9	=9	=9	=9	=9	=9
1A	1D	2F/	2f\	0r	0r
.	.	2F/	2f\	.	.
1A	1D	2F/	2f\	.	.
.	.	2F/	2f\	.	.
=10	=10	=10	=10	=10	=10
1.B	2.BB/	1G	1d	0r	0r
.	4GG/	.	.	.	.
.	2GG/	1G	1d	.	.
4A\	[2G\	.	.	.	.
4G\	.	.	.	.	.
=11	=11	=11	=11	=11	=11
1G	2G\]	2.E/	1.e	2g\	0r
.	2E\	.	.	2g\	.
.	.	4C/	.	.	.
1r	1E	2C/	.	2g\	.
.	.	[2c\	4d\	2g\	.
.	.	.	4c\	.	.
=12	=12	=12	=12	=12	=12
2A\	2AA/	2c\]	1c	1e	2cc\
2A\	2AA/	2A/	.	.	2cc\
2A\	2AA/	1A	1r	1e	2cc\
2A\	2AA/	.	.	.	2cc\
=13	=13	=13	=13	=13	=13
1F	1D	2D/	2d\	1.f	1a
.	.	2D/	2d\	.	.
1F	1D	2D/	2d\	.	1a
.	.	2D/	2d\	4e\	.
.	.	.	.	4d\	.
=14	=14	=14	=14	=14	=14
1.G	1GG	1G	1B	1d	1.b
.	2r	1G	1B	[1g	.
4F\	2GG/	.	.	.	4a/
4E\	.	.	.	.	4g/
=15	=15	=15	=15	=15	=15
1E	2.C/	1C	1.c	2g\]	1g
.	.	.	.	2f\	.
.	4D\	.	.	.	.
1C	2E\	2r	.	[1e	[1cc
.	2AA/	2C/	4B\	.	.
.	.	.	4A/	.	.
=16	=16	=16	=16	=16	=16
0D	0D	2.F/	1A	2e\]	2cc\]
.	.	.	.	2d\	2b\
.	.	4G/	.	.	.
.	.	2A/	1F	[1d	[1a
.	.	2D/	.	.	.
=17	=17	=17	=17	=17	=17
0E	0r	0G	0G	1d]	2a/]
.	.	.	.	.	2g/
.	.	.	.	1c	[1g
=18	=18	=18	=18	=18	=18
0D	2r	0r	0A	1.d	1g]
.	2F\	.	.	.	.
.	2F\	.	.	.	1f#i
.	2D\	.	.	4c\	.
.	.	.	.	4B\	.
=19	=19	=19	=19	=19	=19
1r	2G\	2r	0G	2.B\	1.g
.	2G\	2B\	.	.	.
.	.	.	.	8A/L	.
.	.	.	.	8G/J	.
1G	1E	2B\	.	2G/	.
.	.	2G/	.	[2g\	4f/
.	.	.	.	.	4e/
=20	=20	=20	=20	=20	=20
0A	2r	2c\	1r	2g\]	2.e/
.	2A\	2c\	.	4f\	.
.	.	.	.	4e\	8d/L
.	.	.	.	.	8c/J
.	2A\	1A	1c	1f	2c/
.	2F\	.	.	.	[2cc\
=21	=21	=21	=21	=21	=21
0G	2B-i\	2r	0d	[0g	2cc\]
.	2B-i\	2d\	.	.	4b\
.	.	.	.	.	4a/
.	1G	2d\	.	.	1b
.	.	2B\	.	.	.
=22	=22	=22	=22	=22	=22
0r	0r	2e\	0c	0g]	[0cc
.	.	2e\	.	.	.
.	.	1c	.	.	.
=23	=23	=23	=23	=23	=23
2c\	2C/	0r	0r	0r	0cc]
2c\	2C/	.	.	.	.
2c\	2C/	.	.	.	.
2c\	2C/	.	.	.	.
=24	=24	=24	=24	=24	=24
1A	1D	2F/	2f\	0r	0r
.	.	2F/	2f\	.	.
1A	1D	2F/	2f\	.	.
.	.	2F/	2f\	.	.
=25	=25	=25	=25	=25	=25
1.B	2.BB/	1G	1d	0r	0r
.	4GG/	.	.	.	.
.	2GG/	1G	1d	.	.
4A\	[2G\	.	.	.	.
4G\	.	.	.	.	.
=26	=26	=26	=26	=26	=26
1G	2G\]	2.E/	1.e	2g\	0r
.	2E\	.	.	2g\	.
.	.	4C/	.	.	.
1r	1E	2C/	.	2g\	.
.	.	[2c\	4d\	2g\	.
.	.	.	4c\	.	.
=27	=27	=27	=27	=27	=27
2A\	2AA/	2c\]	1c	1e	2cc\
2A\	2AA/	2A/	.	.	2cc\
2A\	2AA/	1A	1r	1e	2cc\
2A\	2AA/	.	.	.	2cc\
=28	=28	=28	=28	=28	=28
1F	1D	2D/	2d\	1.f	1a
.	.	2D/	2d\	.	.
1F	1D	2D/	2d\	.	1a
.	.	2D/	2d\	4e\	.
.	.	.	.	4d\	.
=29	=29	=29	=29	=29	=29
1.G	0GG	1G	1B	1d	1.b
.	.	1G	1B	[1g	.
4F\	.	.	.	.	4a/
4E\	.	.	.	.	4g/
=30	=30	=30	=30	=30	=30
1E	0C	0C	1.c	2g\]	1g
.	.	.	.	2f\	.
1C	.	.	.	[1e	[1cc
.	.	.	4B\	.	.
.	.	.	4A/	.	.
=31	=31	=31	=31	=31	=31
0D	0r	0F	1A	2e\]	2cc\]
.	.	.	.	2d\	2b\
.	.	.	1F	[1d	[1a
=32	=32	=32	=32	=32	=32
0E	1r	0r	0G	1d]	2a/]
.	.	.	.	.	2g/
.	1C	.	.	1c	[1g
=33	=33	=33	=33	=33	=33
0D	2F\	1r	0A	0d	1g]
.	2F\	.	.	.	.
.	1D	1F	.	.	1f#i
=34	=34	=34	=34	=34	=34
1r	1r	2B-i\	0G	1r	0g
.	.	2B-i\	.	.	.
1C	2r	1G	.	1e	.
.	2C/	.	.	.	.
=35	=35	=35	=35	=35	=35
0D	2F\	1r	1r	2d\	1r
.	2F\	.	.	2.f\	.
.	1D	2r	1F	.	1a
.	.	.	.	4e\	.
.	.	2F/	.	[2d\	.
=36	=36	=36	=36	=36	=36
0E	1r	2B-i\	0G	2d\]	2g/
.	.	2B-i\	.	4c\	2.b-i\
.	.	.	.	4B-i\	.
.	1C	1G	.	1c	.
.	.	.	.	.	4a/
.	.	.	.	.	[2g/
=37	=37	=37	=37	=37	=37
0D	1.F	0r	0A	0d	2g/]
.	.	.	.	.	4f#i/
.	.	.	.	.	4e/
.	.	.	.	.	1f#i
.	2D\	.	.	.	.
=38	=38	=38	=38	=38	=38
0GGl	0Dl	0Gl	0Gl	0dl	0gl
==	==	==	==	==	==
*-	*-	*-	*-	*-	*-
!!!RDF**kern: l=long note in original notation
!!!RDF**kern: i=editorial accidental
!!!ENC:	Will Watson 07/09/2011
!!!END:	2011/09/07/
!!!EED:	Jesse Rodin
!!!EEV:	2011/10/07/
!!attribution-level@Jos: 4 (questionable)
!!!ONB:	Translated from MusicXML and edited on 2011/10/07/ by Craig Sapp
!!muse2ps: C^@{COA}?\n@{SCT}^i2I150v95,95,95,95,95,130Q16
